shared/img/tn-aol.svg

<?xml version="1.0" encoding="UTF-8"?>
<svg width="18px" height="7px" viewBox="0 0 18 7" version="1.1" xmlns="http://www.w3.org/2000/svg" xmlns:xlink="http://www.w3.org/1999/xlink">
    <!-- Generator: sketchtool 47.1 (45422) - http://www.bohemiancoding.com/sketch -->
    <title>74AFFA00-BBF6-4828-B058-B9F6886D56FA</title>
    <desc>Created with sketchtool.</desc>
    <defs></defs>
    <g id="V4--RC-Updates" stroke="none" stroke-width="1" fill="none" fill-rule="evenodd">
        <g id="ASSETS--Pill-Icons" transform="translate(-179.000000, -529.000000)" fill-rule="nonzero" fill="#FFFFFF">
            <g id="aol" transform="translate(179.000000, 529.000000)">
                <path d="M2.68434783,0 C2.60217391,0.148695652 0,6.75782609 0,6.84 L1.81173913,6.84 L2.16782609,5.86956522 L4.54695652,5.86956522 C4.66173913,6.19826087 4.77130435,6.52304348 4.87565217,6.84391304 C5.12217391,6.87130435 6.64043478,6.84391304 6.7226087,6.84391304 L4.05782609,0 L2.68434783,0 Z M2.65304348,4.46086957 C2.88782609,3.67826087 3.1226087,2.89565217 3.3573913,2.11304348 L3.37695652,2.11304348 C3.61173913,2.89565217 3.8426087,3.67826087 4.08130435,4.46086957 L2.65304348,4.46086957 Z" id="Shape"></path>
                <path d="M10.533913,1.66695652 C10.0381662,1.50820261 9.50987013,1.47990103 9,1.58478261 C8.59944147,1.65303013 8.22258646,1.82126897 7.90434783,2.07391304 C7.2364139,2.59984891 6.84693229,3.40333506 6.84782609,4.25347826 C6.84758137,4.53630484 6.89114112,4.8174632 6.97695652,5.08695652 C7.20936568,5.92032397 7.84419989,6.58160961 8.6673913,6.84782609 C9.08941103,6.98754811 9.53776797,7.02903786 9.97826087,6.96913043 C10.6850681,6.91465172 11.3346593,6.55994075 11.7626087,5.99478261 C12.3994911,5.20741991 12.5499836,4.13290354 12.153913,3.20086957 C11.8867065,2.46225657 11.2860024,1.89347389 10.533913,1.66695652 L10.533913,1.66695652 Z M10.2091304,5.38826087 C9.92763874,5.55425545 9.5903942,5.59756435 9.2760941,5.50808126 C8.96179401,5.41859817 8.69793405,5.20415129 8.54608696,4.91478261 C8.28653756,4.42902397 8.34035456,3.83549937 8.68304348,3.40434783 C8.94945628,3.07932118 9.36676535,2.9177558 9.78259023,2.9786473 C10.1984151,3.03953881 10.5518784,3.31397259 10.713913,3.70173913 C10.7926407,3.87757825 10.831397,4.06868713 10.8273913,4.26130435 C10.8445497,4.72214498 10.607016,5.15511796 10.2091304,5.38826087 L10.2091304,5.38826087 Z" id="Shape"></path>
                <path d="M13.23,0 L13.23,6.84 L14.7678261,6.84 C14.7913043,6.69130435 14.7678261,0.082173913 14.7678261,0.00391304348 L13.23,0 Z" id="Shape"></path>
                <circle id="Oval" cx="16.5991304" cy="5.85391304" r="1.01347826"></circle>
            </g>
        </g>
    </g>
</svg>

<svg width="18" height="7" xmlns="http://www.w3.org/2000/svg"><g fill-rule="nonzero" fill="#FFF"><path d="M2.684 0C2.602.149 0 6.758 0 6.84h1.812l.356-.97h2.379c.115.328.224.653.329.974.246.027 1.764 0 1.847 0L4.058 0H2.684zm-.031 4.46l.704-2.347h.02c.235.783.466 1.565.704 2.348H2.653zM10.534 1.667A3.029 3.029 0 0 0 9 1.585c-.4.068-.777.236-1.096.489a2.77 2.77 0 0 0-.927 3.013 2.579 2.579 0 0 0 1.69 1.76c.422.14.87.182 1.311.122a2.477 2.477 0 0 0 1.785-.974 2.74 2.74 0 0 0 .39-2.794 2.485 2.485 0 0 0-1.62-1.534zm-.325 3.721a1.193 1.193 0 0 1-1.663-.473 1.381 1.381 0 0 1 .137-1.51 1.197 1.197 0 0 1 2.03.297c.08.176.118.367.114.56.018.46-.22.893-.618 1.126zM13.23 0v6.84h1.538c.023-.149 0-6.758 0-6.836L13.23 0z"/><circle cx="16.599" cy="5.854" r="1.013"/></g></svg>
